src/img/advantages__stamp.svg

<svg width="160" height="160" fill="none" xmlns="http://www.w3.org/2000/svg">
  <g clip-path="url(#clip0)" fill="#1E89E3">
    <path d="M141.334 40.0039V13.3381C141.334 11.8655 140.14 10.6715 138.667 10.6715H128.001V16.0047H136.001V40.0039H141.334zM18.6714 80.0026V146.667C18.6714 148.14 19.8654 149.334 21.338 149.334H128.001C129.474 149.334 130.668 148.14 130.668 146.667V128.001H125.335V144H24.0045V80.0026H18.6714zM105.106.272167C105.023.234408 104.943.213575 104.857.183629 104.635.106808 104.403.0612367 104.167.0456122 104.109.0351959 104.058.00524902 104.002.00524902H21.338C19.8654.00524902 18.6714 1.19922 18.6714 2.67183V8.00499H24.0045V5.33841H101.335V26.671C101.335 28.1436 102.529 29.3376 104.002 29.3376H125.335V42.6705H130.668V26.671C130.668 26.6151 130.639 26.5643 130.635 26.5057 130.621 26.27 130.574 26.0382 130.497 25.8156 130.467 25.7297 130.446 25.6502 130.409 25.5669 130.28 25.2766 130.099 25.0122 129.876 24.7857L105.877.786473C105.652.571637 105.391.397163 105.106.272167zM121.564 24.0045H106.669V9.10912L121.564 24.0045z"/>
    <path d="M61.3364 112.002V133.334C61.3364 134.807 62.5304 136.001 64.003 136.001H98.6685V130.668H66.6696V114.668H80.0025V109.335H64.003C62.5304 109.335 61.3364 110.529 61.3364 112.002Z"/>
    <path d="M72.0027 120.001H88.0022V125.334H72.0027V120.001Z"/>
    <path d="M141.334 45.337C131.031 45.3501 122.681 53.7 122.668 64.0031V64.27L109.068 78.6263 100.554 70.1123C99.5124 69.0706 97.8249 69.0706 96.7833 70.1123L72.7841 94.1115C71.7437 95.1531 71.7437 96.8406 72.7841 97.8822L110.116 135.214C111.158 136.255 112.845 136.255 113.887 135.214L121.887 127.215 136.001 113.106V154.667H32.0042V160H138.667C140.14 160 141.334 158.806 141.334 157.333V93.3355H136.001V105.564L126.705 96.269 141.067 82.6691H141.334C151.643 82.6691 160 74.3126 160 64.0031 160 53.6935 151.643 45.337 141.334 45.337zM112.002 129.563L78.4401 96.002 82.6692 91.773 116.231 125.334 112.002 129.563zM132.23 109.335L120.001 121.564 86.4399 88.0023 98.6686 75.7735 105.399 82.5038 99.3991 88.8343C98.3965 89.8851 98.4199 91.5438 99.4499 92.5673L112.783 105.9C113.804 106.921 115.452 106.943 116.5 105.951L122.833 99.9511 132.23 109.335zM141.334 77.336H140.001C139.318 77.336 138.662 77.5977 138.166 78.0664L114.719 100.269 105.068 90.6181 127.281 67.171C127.747 66.6736 128.004 66.0173 128.001 65.3364V64.0031C128.001 56.64 133.971 50.6702 141.334 50.6702 148.697 50.6702 154.667 56.64 154.667 64.0031 154.667 71.3661 148.697 77.336 141.334 77.336zM50.6702 77.3361H77.336V82.6692H50.6702V77.3361zM34.6707 88.0023H66.6696V93.3355H34.6707V88.0023zM58.6699 66.6697H90.6689V72.0028H58.6699V66.6697zM34.6707 98.6687H50.6701V104.002H34.6707V98.6687zM34.6707 109.335H56.0033V114.668H34.6707V109.335z"/>
    <path d="M34.6707 120.001H56.0033V125.334H34.6707V120.001zM34.6707 130.668H56.0033V136.001H34.6707V130.668zM34.6707 77.3361H45.337V82.6692H34.6707V77.3361zM56.0034 98.6687H66.6697V104.002H56.0034V98.6687zM66.6697 53.3368H93.3355V58.67H66.6697V53.3368z"/>
    <path d="M32.0041 74.6694C49.2262 74.6499 63.3443 61.0019 63.9471 43.7902C65.3872 44.9959 67.2478 45.5779 69.1175 45.4061C70.4912 47.0518 72.5249 48.0036 74.6694 48.0036C76.8139 48.0036 78.8477 47.0518 80.2213 45.4061C82.3567 45.5975 84.466 44.8319 85.9815 43.3163C87.4971 41.8007 88.2627 39.6914 88.0713 37.5561C89.7184 36.1824 90.6689 34.1486 90.6689 32.0042C90.6689 29.8597 89.7184 27.8259 88.0713 26.4523C88.2627 24.3169 87.4971 22.2076 85.9815 20.692C84.466 19.1765 82.3567 18.4109 80.2213 18.6023C78.8477 16.9565 76.8139 16.0047 74.6694 16.0047C72.5249 16.0047 70.4912 16.9565 69.1175 18.6023C66.9822 18.4109 64.8729 19.1765 63.3573 20.692C61.8417 22.2076 61.0761 24.3169 61.2675 26.4523C60.873 26.7778 60.5149 27.1462 60.2011 27.5512C52.8029 13.7521 36.5079 7.33309 21.6868 12.3785C6.86564 17.4252 -2.12886 32.4534 0.429648 47.8995C2.98816 63.3456 16.3484 74.672 32.0041 74.6694ZM65.2452 30.2438C65.9562 29.9912 66.5264 29.4496 66.8155 28.753C67.1032 28.0564 67.0837 27.2699 66.7608 26.589C66.4145 25.8728 66.559 25.0174 67.1202 24.4549C67.6827 23.8937 68.5381 23.7492 69.2542 24.0956C69.9352 24.4185 70.7216 24.438 71.4182 24.1502C72.1148 23.8612 72.6565 23.2909 72.909 22.58C73.1734 21.8339 73.8778 21.3352 74.6694 21.3352C75.4611 21.3352 76.1655 21.8339 76.4298 22.58C76.6824 23.2909 77.224 23.8612 77.9206 24.1502C78.6172 24.438 79.4036 24.4185 80.0859 24.0956C80.8007 23.7492 81.6562 23.8937 82.2186 24.4549C82.7798 25.0174 82.9243 25.8728 82.578 26.589C82.2551 27.2699 82.2356 28.0564 82.5233 28.753C82.8124 29.4496 83.3827 29.9912 84.0936 30.2438C84.8396 30.5081 85.3383 31.2125 85.3383 32.0042C85.3383 32.7958 84.8396 33.5002 84.0936 33.7645C83.3827 34.0171 82.8124 34.5588 82.5233 35.2553C82.2356 35.9519 82.2551 36.7384 82.578 37.4206C82.9465 38.1329 82.7967 39.0039 82.2108 39.5534C81.6588 40.1341 80.7916 40.2825 80.0768 39.9219C79.3958 39.5977 78.6094 39.5781 77.9128 39.8672C77.2162 40.1549 76.6746 40.7252 76.422 41.4361C76.1576 42.1822 75.4519 42.6809 74.6616 42.6809C73.87 42.6809 73.1656 42.1822 72.9012 41.4361C72.6486 40.7239 72.1057 40.1536 71.4078 39.8659C71.0836 39.7331 70.7372 39.6641 70.387 39.6628C69.9912 39.6641 69.6006 39.7552 69.2451 39.9297C68.5303 40.2747 67.6748 40.1302 67.1124 39.569C66.5512 39.0065 66.4067 38.1511 66.753 37.4363C67.0759 36.7553 67.0954 35.9689 66.8077 35.2723C66.5186 34.5744 65.9483 34.0327 65.2374 33.7801C64.4914 33.5171 63.9927 32.8114 63.9927 32.0198C63.9927 31.2294 64.4914 30.5237 65.2374 30.2607L65.2452 30.2438ZM32.0041 16.0047C46.7315 16.0047 58.6699 27.9431 58.6699 42.6705C58.6699 57.3979 46.7315 69.3363 32.0041 69.3363C17.2768 69.3363 5.33834 57.3979 5.33834 42.6705C5.35397 27.9496 17.2833 16.0203 32.0041 16.0047Z"/>
    <path d="M19.4524 57.8888C20.494 58.9291 22.1815 58.9291 23.2231 57.8888L49.8889 31.223L46.1182 27.4523L21.3377 52.2327L15.2233 46.1183L11.4526 49.889L19.4524 57.8888Z"/>
  </g>
  <defs>
    <clipPath id="clip0">
      <path fill="#fff" d="M0 0H160V160H0z"/>
    </clipPath>
  </defs>
</svg>

<svg width="160" height="160" fill="none" xmlns="http://www.w3.org/2000/svg"><g clip-path="url(#clip0)" fill="#1E89E3"><path d="M141.334 40.004V13.338a2.667 2.667 0 00-2.667-2.666h-10.666v5.333h8v23.999h5.333zM18.671 80.003v66.664a2.667 2.667 0 002.667 2.667h106.663a2.667 2.667 0 002.667-2.667v-18.666h-5.333V144H24.005V80.003H18.67zM105.106.273c-.083-.039-.163-.06-.249-.09a2.642 2.642 0 00-.69-.137c-.058-.01-.109-.04-.165-.04H21.338a2.667 2.667 0 00-2.667 2.666v5.333h5.334V5.338h77.33v21.333a2.667 2.667 0 002.667 2.667h21.333V42.67h5.333V26.671c0-.056-.029-.107-.033-.165a2.578 2.578 0 00-.138-.69c-.03-.086-.051-.166-.088-.25a2.645 2.645 0 00-.533-.78l-23.999-24a2.67 2.67 0 00-.771-.514zm16.458 23.732h-14.895V9.108l14.895 14.896z"/><path d="M61.336 112.002v21.332a2.667 2.667 0 002.667 2.667h34.665v-5.333H66.67v-16h13.332v-5.333H64.004a2.667 2.667 0 00-2.667 2.667z"/><path d="M72.003 120.001h16v5.333h-16v-5.333z"/><path d="M141.334 45.337c-10.303.013-18.653 8.363-18.666 18.666v.267l-13.6 14.356-8.514-8.514a2.665 2.665 0 00-3.77 0l-24 24a2.668 2.668 0 000 3.77l37.332 37.332a2.667 2.667 0 003.771 0l8-7.999 14.114-14.109v41.561H32.004V160h106.663a2.667 2.667 0 002.667-2.667V93.335h-5.333v12.229l-9.296-9.295 14.362-13.6h.267c10.309 0 18.666-8.356 18.666-18.666s-8.357-18.666-18.666-18.666zm-29.332 84.226L78.44 96.002l4.23-4.229 33.561 33.561-4.229 4.229zm20.228-20.228l-12.229 12.229L86.44 88.002l12.229-12.228 6.73 6.73-6 6.33a2.667 2.667 0 00.05 3.733l13.334 13.333a2.666 2.666 0 003.717.051l6.333-6 9.397 9.384zm9.104-31.999h-1.333c-.683 0-1.339.262-1.835.73l-23.447 22.203-9.651-9.65 22.213-23.448a2.665 2.665 0 00.72-1.835v-1.333c0-7.363 5.97-13.333 13.333-13.333s13.333 5.97 13.333 13.333-5.97 13.333-13.333 13.333zm-90.664 0h26.666v5.333H50.67v-5.333zm-16 10.666h32v5.334h-32v-5.334zm24-21.332h31.999v5.333h-32V66.67zm-24 31.999h16v5.333h-16v-5.333zm0 10.666h21.333v5.333H34.671v-5.333z"/><path d="M34.67 120.001h21.333v5.333H34.671v-5.333zm0 10.667h21.333v5.333H34.671v-5.333zm0-53.332h10.667v5.333H34.671v-5.333zM56.004 98.67H66.67v5.333H56.003V98.67zM66.67 53.337h26.665v5.333H66.67v-5.333z"/><path d="M32.004 74.67c17.222-.02 31.34-13.668 31.943-30.88a7.05 7.05 0 005.17 1.616 7.232 7.232 0 0011.104 0 7.232 7.232 0 007.85-7.85 7.228 7.228 0 002.598-5.552c0-2.144-.95-4.178-2.598-5.552a7.232 7.232 0 00-7.85-7.85 7.232 7.232 0 00-11.103 0 7.233 7.233 0 00-7.85 7.85 6.921 6.921 0 00-1.067 1.1c-7.398-13.8-23.693-20.219-38.514-15.173C6.866 17.425-2.13 32.453.43 47.899c2.558 15.447 15.918 26.773 31.574 26.77zm33.241-44.426a2.666 2.666 0 001.516-3.655 1.869 1.869 0 01.36-2.134 1.868 1.868 0 012.133-.36 2.666 2.666 0 003.655-1.516 1.867 1.867 0 013.52.001 2.666 2.666 0 003.657 1.516 1.867 1.867 0 012.492 2.493 2.667 2.667 0 001.516 3.655 1.867 1.867 0 010 3.52 2.667 2.667 0 00-1.516 3.657 1.794 1.794 0 01-.367 2.132c-.552.581-1.42.73-2.134.369a2.661 2.661 0 00-2.164-.055 2.66 2.66 0 00-1.491 1.57 1.869 1.869 0 01-3.52 0 2.66 2.66 0 00-1.494-1.571 2.611 2.611 0 00-2.163.064 1.867 1.867 0 01-2.492-2.493 2.665 2.665 0 00-1.516-3.656 1.866 1.866 0 010-3.52l.008-.017zm-33.24-14.24c14.726 0 26.665 11.94 26.665 26.666 0 14.728-11.939 26.666-26.666 26.666S5.338 57.398 5.338 42.67c.016-14.72 11.945-26.65 26.666-26.665z"/><path d="M19.452 57.889a2.668 2.668 0 003.771 0L49.89 31.223l-3.77-3.77-24.781 24.78-6.115-6.115-3.77 3.771 8 8z"/></g><defs><clipPath id="clip0"><path fill="#fff" d="M0 0h160v160H0z"/></clipPath></defs></svg>
